X: 24
T: Missa [Ad fugam] / Credo
N: Derived from Ort1006c-Missa_Ad_fugam-Credo.krn
C: Marbrianus de Orto
%%abc-version 2.0
%%abcx-abcm2ps-target-version 5.9.1 (29 Sep 2008)
%%abc-creator hum2abc beta
%%abcx-conversion-date 2019/02/17 07:28:37
%%abc-edited-by Jesse Rodin
%%abc-edited-by Jesse Rodin 8/8/2013
%%abcx-initial-encoding-date 2013/08/09/
%%humdrum-veritas 3707810663
%%humdrum-veritas-data 2191980519
%%linebreak <none>
%%barnumbers 0
L: 1/4
M: 4/2
Q: 1/2=120
%%staves [1 2 3 4]
V: 1 clef=treble
V: 2 clef=treble-8
V: 3 clef=treble-8
V: 4 clef=bass
K: F
[V:1] z8 | 
[V:2] z8 | 
[V:3] z8 | 
[V:4] D,4_E,4 | 
[V:1] z8 | 
[V:2] A4B4 | 
[V:3] z8 | 
[V:4] D,4z2D,2- | 
[V:1] z8 | 
[V:2] A4A2G2 | 
[V:3] z8 | 
[V:4] D,2C,2D,2B,,2 | 
[V:1] A4B4 | 
[V:2] G2^F2G4 | 
[V:3] z8 | 
[V:4] A,,4G,,4 | 
[V:1] A4A2G2 | 
[V:2] d4c2B2 | 
[V:3] z8 | 
[V:4] z2F,4G,2 | 
[V:1] G2^F2G4 | 
[V:2] A4z2c2 | 
[V:3] d4_e4 | 
[V:4] D,4C,4 | 
[V:1] z4A4 | 
[V:2] F2f6- | 
[V:3] d4d2c2 | 
[V:4] B,,3C,D,E,F,2 | 
[V:1] B4A4 | 
[V:2] f2e2f3e | 
[V:3] c2B2c4 | 
[V:4] G,4F,4- | 
[V:1] A2G2G2^F2 | 
[V:2] dcB2A4 | 
[V:3] z4d4 | 
[V:4] F,2G,2D,4 | 
[V:1] G8- | 
[V:2] z2GABcd2 | 
[V:3] _e4d4 | 
[V:4] C,4G,,3A,, | 
[V:1] G4z4 | 
[V:2] D2G4F2 | 
[V:3] d2c2c2=B2 | 
[V:4] B,,2C,2D,4 | 
[V:1] E3FG2G2 | 
[V:2] G4E4 | 
[V:3] c8- | 
[V:4] C,8 | 
[V:1] A4z2G2- | 
[V:2] F3GABc2 | 
[V:3] c4z4 | 
[V:4] F,,4F,2E,2 | 
[V:1] G2F2E4 | 
[V:2] d4A4 | 
[V:3] A3Bc2c2 | 
[V:4] D,4z4 | 
[V:1] D4z4 | 
[V:2] B4A4- | 
[V:3] d4z2c2- | 
[V:4] G,,4D,2F,2- | 
[V:1] z4A4 | 
[V:2] A2G2G2^F2 | 
[V:3] c2B2A4 | 
[V:4] F,2G,2D,4 | 
[V:1] B4A4 | 
[V:2] G4d4 | 
[V:3] G4z4 | 
[V:4] G,,2G,4F,2 | 
[V:1] F2G2A2B2 | 
[V:2] d3ef2d2 | 
[V:3] z4d4 | 
[V:4] B,3A,/G,/F,2G,2 | 
[V:1] cBAGF4 | 
[V:2] z2c2A4 | 
[V:3] _e4d4 | 
[V:4] C,4D,4 | 
[V:1] z2A4G2 | 
[V:2] z4D2G2- | 
[V:3] B2c2d2_e2 | 
[V:4] G,2F,2z4 | 
[V:1] A4DEFG | 
[V:2] G2^F2G4 | 
[V:3] f_edcB4 | 
[V:4] D,4z4 | 
[V:1] A2B3GG2- | 
[V:2] z4G4 | 
[V:3] z2d4c2 | 
[V:4] F,2G,2_E,4 | 
[V:1] G2^F2G4 | 
[V:2] A4B2G2 | 
[V:3] d4GABc | 
[V:4] D,4z2_E,2 | 
[V:1] z8 | 
[V:2] ABc2B2AG | 
[V:3] d2_e3cc2- | 
[V:4] D,2C,2G,2F,_E, | 
[V:1] z4G4 | 
[V:2] F4G2c2- | 
[V:3] c2=B2c4 | 
[V:4] D,4C,4 | 
[V:1] G2A4A2 | 
[V:2] cBAGF2f2 | 
[V:3] z8 | 
[V:4] C3B,A,G,F,2 | 
[V:1] G3GA4 | 
[V:2] d3ef4 | 
[V:3] z4c4 | 
[V:4] B,3A,/G,/F,3G, | 
[V:1] z2B2A2F2 | 
[V:2] f2g2z4 | 
[V:3] c2d4d2 | 
[V:4] A,2G,2F,2D,2 | 
[V:1] G4F3G | 
[V:2] G4A4- | 
[V:3] c3cd4 | 
[V:4] E,4D,3E, | 
[V:1] ABc4B2- | 
[V:2] A2G4d2 | 
[V:3] z2_e2d2B2 | 
[V:4] F,2C,2G,4 | 
[V:1] B2A2B4 | 
[V:2] f4f3e | 
[V:3] c4B3c | 
[V:4] F,4B,,C,D,E, | 
[V:1] z2A4G2 | 
[V:2] dcd2c2B2 | 
[V:3] d_ef4_e2- | 
[V:4] F,2D,2F,2G,2 | 
[V:1] A2A2G4 | 
[V:2] c2A2c4 | 
[V:3] e2d2_e4 | 
[V:4] F,4C,4 | 
[V:1] z4z2E2 | 
[V:2] A2B2G4 | 
[V:3] z2d4c2 | 
[V:4] D,2B,,2z2C,2 | 
[V:1] F2G2E4 | 
[V:2] B4A2c2- | 
[V:3] d2d2c4 | 
[V:4] B,,2G,,2A,,4 | 
[V:1] G4A4 | 
[V:2] c2B2A2d2- | 
[V:3] z4z2A2 | 
[V:4] E,4F,4 | 
[V:1] z4A4 | 
[V:2] d2_e2d2D2 | 
[V:3] B2c2A4 | 
[V:4] G,2C,2D,3C,/B,,/ | 
[V:1] A4B4 | 
[V:2] E2F2G2B2 | 
[V:3] c4d4 | 
[V:4] A,,4G,,4 | 
[V:1] A2G2G2^F2 | 
[V:2] F2G2A4 | 
[V:3] z4d4 | 
[V:4] D,2_E,2D,4 | 
[V:1] G4G2G2 | 
[V:2] G2B2cBAG | 
[V:3] d4_e4 | 
[V:4] G,,4z2C,2 | 
[V:1] A4F4 | 
[V:2] F2A4F2 | 
[V:3] d2c2c2=B2 | 
[V:4] F,4D,4 | 
[V:1] E4z4 | 
[V:2] G4G2A2- | 
[V:3] c4c2c2 | 
[V:4] C,3D,E,2F,2- | 
[V:1] z4G2G2 | 
[V:2] A2A2G4 | 
[V:3] d4B4 | 
[V:4] F,2D,2_E,4 | 
[V:1] A4G2F2 | 
[V:2] c3d_e2d2- | 
[V:3] A4z4 | 
[V:4] z8 | 
[V:1] E4z4 | 
[V:2] d2c2A2G2 | 
[V:3] z4c2c2 | 
[V:4] z4F,2E,2 | 
[V:1] F4E2D2- | 
[V:2] A2a3gg2- | 
[V:3] d4c2B2 | 
[V:4] D,4z4 | 
[V:1] D2C2D4 | 
[V:2] g2^f2g4 | 
[V:3] A4z4 | 
[V:4] z4G,4- | 
[V:1] D2D2C2B,2 | 
[V:2] z8 | 
[V:3] B4A2G2- | 
[V:4] G,2D,2F,2G,2 | 
[V:1] A,4z4 | 
[V:2] d4B2c2 | 
[V:3] G2F2G4 | 
[V:4] D,4_E,2C,2 | 
[V:1] z4F2G2 | 
[V:2] d2B2A2G2 | 
[V:3] G2G2F2_E2 | 
[V:4] B,,2G,,2D,2G,2- | 
[V:1] A4B4 | 
[V:2] d4z2G2- | 
[V:3] D4z4 | 
[V:4] G,2F,2G,2G,,2 | 
[V:1] A4G4 | 
[V:2] G2F2G4 | 
[V:3] z4B2c2 | 
[V:4] D,4_E,4 | 
[V:1] z2G2G2G2 | 
[V:2] A2B2G2c2 | 
[V:3] d4_e4 | 
[V:4] D,2B,,2C,2C,2- | 
[V:1] G2G2E4 | 
[V:2] G6c2- | 
[V:3] d4c4 | 
[V:4] C,2B,,2C,3D, | 
[V:1] G4A4 | 
[V:2] cde2c2f2 | 
[V:3] z2c2c2c2 | 
[V:4] E,2C,2F,4 | 
[V:1] z2A2c3B | 
[V:2] e2c2f4 | 
[V:3] c2c2A4 | 
[V:4] C,2F,4F,2 | 
[V:1] A2G2A2A2 | 
[V:2] z2g4^f2 | 
[V:3] c4d4 | 
[V:4] F,2E,2D,4 | 
[V:1] G4z2D2 | 
[V:2] g3f/e/d2B2- | 
[V:3] z2d2f3_e | 
[V:4] G,,2B,,4B,,2 | 
[V:1] F2A4F2 | 
[V:2] B2c2F2A2- | 
[V:3] d2c2d2d2 | 
[V:4] B,,2A,,2D,4 | 
[V:1] E2E2D4 | 
[V:2] A2A2A2B2 | 
[V:3] c4z2G2 | 
[V:4] A,,4D,2G,2- | 
[V:1] z2F4G2 | 
[V:2] d4z2d2- | 
[V:3] B2d4B2 | 
[V:4] G,F,D,2B,,2G,,2 | 
[V:1] G2^F2G3=F | 
[V:2] d2d2d2e2 | 
[V:3] A2A2G4 | 
[V:4] D,4G,,2C,2 | 
[V:1] D2D2F2E2 | 
[V:2] f2g2d2g2- | 
[V:3] z2B4c2 | 
[V:4] B,,2G,,2D,2C,2 | 
[V:1] D4z2G2 | 
[V:2] g2g2z2_e2- | 
[V:3] c2=B2c3B | 
[V:4] G,4C,4 | 
[V:1] B3AG2c2- | 
[V:2] e2d4c2 | 
[V:3] G2G2B2A2 | 
[V:4] z8 | 
[V:1] c2B2c3B | 
[V:2] d4c4- | 
[V:3] G4z2c2 | 
[V:4] z4C,4- | 
[V:1] G4z2A2- | 
[V:2] c4A2c2 | 
[V:3] _e3dc2f2- | 
[V:4] C,4F,4 | 
[V:1] A2G2A2GF | 
[V:2] F2c2d4 | 
[V:3] f2_e2f3_e | 
[V:4] z4D,4 | 
[V:1] E4DEFG | 
[V:2] z4f4- | 
[V:3] c4z2d2- | 
[V:4] A,4B,3A,/G,/ | 
[V:1] ABA2B2G2- | 
[V:2] f4f2d2- | 
[V:3] d2c2d2cB | 
[V:4] F,4B,,3C, | 
[V:1] G2^F2G4 ||  
[V:2] d8 ||  
[V:3] A4G4 ||  
[V:4] D,4G,,4 ||  
[V:1]  [K:F] [K:clef=treble][M:4/2]E4F4 | 
[V:2]  [K:F] [K:clef=treble-8][M:4/2]z8 | 
[V:3]  [K:F] [K:clef=treble-8][M:4/2]z8 | 
[V:4]  [K:F] [K:clef=bass][M:4/2]z4D,4 | 
[V:1] G6G2 | 
[V:2] z8 | 
[V:3] z8 | 
[V:4] E,6F,2 | 
[V:1] G4G4 | 
[V:2] B4c4 | 
[V:3] z8 | 
[V:4] G,4E,4 | 
[V:1] F8 | 
[V:2] d6d2 | 
[V:3] A4B4 | 
[V:4] D,4B,,4 | 
[V:1] A4G2F2 | 
[V:2] c4A4 | 
[V:3] c6c2 | 
[V:4] A,,8 | 
[V:1] E8 | 
[V:2] G8 | 
[V:3] c4c4 | 
[V:4] C,6B,,A,, | 
[V:1] z4F4- | 
[V:2] d8 | 
[V:3] B8 | 
[V:4] G,,2B,,3C,D,2- | 
[V:1] F4G4 | 
[V:2] z8 | 
[V:3] d4c2B2 | 
[V:4] D,2F,2E,4 | 
[V:1] A8 | 
[V:2] c6d2 | 
[V:3] A8 | 
[V:4] F,8 | 
[V:1] G6A2 | 
[V:2] _e4_e4 | 
[V:3] z4B4- | 
[V:4] C,4_E,4 | 
[V:1] B4A4- | 
[V:2] d4f4- | 
[V:3] B4c4 | 
[V:4] G,4F,4 | 
[V:1] A2G2A2B2 | 
[V:2] f4F3G | 
[V:3] d8 | 
[V:4] D,8 | 
[V:1] c6BA | 
[V:2] A2B2c4- | 
[V:3] c6d2 | 
[V:4] A,,6B,,2 | 
[V:1] G4F4 | 
[V:2] c4A4 | 
[V:3] _e4d4- | 
[V:4] C,4D,4 | 
[V:1] z8 | 
[V:2] B2A2B4 | 
[V:3] d2c2d2_e2 | 
[V:4] G,8 | 
[V:1] A8- | 
[V:2] c8 | 
[V:3] f6_ed | 
[V:4] F,8- | 
[V:1] A4B4 | 
[V:2] f6ed | 
[V:3] c4B4 | 
[V:4] F,4B,,4 | 
[V:1] A4G4- | 
[V:2] c2d3cc2- | 
[V:3] z8 | 
[V:4] F,4E,4 | 
[V:1] G2^FEF4 | 
[V:2] cBAGA4 | 
[V:3] d8- | 
[V:4] D,8 | 
[V:1] G8 | 
[V:2] G8 | 
[V:3] d4_e4 | 
[V:4] G,,4C,4 | 
[V:1] F4E4 | 
[V:2] z4g4- | 
[V:3] d4c4- | 
[V:4] z2B,,2C,4 | 
[V:1] D4z2G2 | 
[V:2] g4d4 | 
[V:3] c2=BA=B4 | 
[V:4] G,,4G,4 | 
[V:1] A2c3BA2- | 
[V:2] f4e2f2 | 
[V:3] c8 | 
[V:4] F,2E,D,C,2F,2 | 
[V:1] A2G4^F2 | 
[V:2] d8- | 
[V:3] B4A4 | 
[V:4] G,4D,4 | 
[V:1] G8 ||  
[V:2] d8 ||  
[V:3] G8 ||  
[V:4] G,,8 ||  
[V:1]  [K:F] [K:clef=treble][M:2/1]z8 | 
[V:2]  [K:F] [K:clef=treble-8][M:2/1]z4c4 | 
[V:3]  [K:F] [K:clef=treble-8][M:2/1]z8 | 
[V:4]  [K:F] [K:clef=bass][M:2/1]B,,4C,4 | 
[V:1] z8 | 
[V:2] d4c4 | 
[V:3] z8 | 
[V:4] B,,4A,,4 | 
[V:1] z8 | 
[V:2] A4B2G2 | 
[V:3] z8 | 
[V:4] z2D,4B,,2 | 
[V:1] z8 | 
[V:2] A2B2c4 | 
[V:3] z8 | 
[V:4] C,2D,2_E,4 | 
[V:1] z8 | 
[V:2] d4A4 | 
[V:3] z8 | 
[V:4] D,2G,4F,2 | 
[V:1] z8 | 
[V:2] B4A2G2 | 
[V:3] z8 | 
[V:4] G,2D,4C,B,, | 
[V:1] z8 | 
[V:2] G2^F2G4 | 
[V:3] z8 | 
[V:4] A,,4G,,4 | 
[V:1] z8 | 
[V:2] B4c2BA | 
[V:3] z8 | 
[V:4] z4A,4 | 
[V:1] z8 | 
[V:2] G2d2c2B2 | 
[V:3] z8 | 
[V:4] B,4A,2G,2 | 
[V:1] z8 | 
[V:2] A4G4 | 
[V:3] z8 | 
[V:4] G,2^F,2G,4 | 
[V:1] z8 | 
[V:2] z2c2d2e2 | 
[V:3] z8 | 
[V:4] E,2F,4G,2 | 
[V:1] z8 | 
[V:2] f4d4 | 
[V:3] z8 | 
[V:4] A,2B,3A,G,2 | 
[V:1] z8 | 
[V:2] z2d2e2f2 | 
[V:3] z8 | 
[V:4] F,2G,4D,2 | 
[V:1] z8 | 
[V:2] g4f4 | 
[V:3] z8 | 
[V:4] _E,4B,,C,D,=E, | 
[V:1] z8 | 
[V:2] z2B3cde | 
[V:3] z8 | 
[V:4] F,2G,3F,D,2- | 
[V:1] z8 | 
[V:2] f2g2z2G2- | 
[V:3] z8 | 
[V:4] D,2G,,3A,,B,,C, | 
[V:1] z8 | 
[V:2] GABcdefg | 
[V:3] z8 | 
[V:4] B,,2G,,2G,2F,2- | 
[V:1] z8 | 
[V:2] a2g4^f2 | 
[V:3] z8 | 
[V:4] F,2G,2A,4 | 
[V:1] D6E2 | 
[V:2] g4G3A | 
[V:3] z8 | 
[V:4] G,6F,E, | 
[V:1] F4G4 | 
[V:2] B4_e4 | 
[V:3] z8 | 
[V:4] D,4C,4 | 
[V:1] A4B4 | 
[V:2] d8 | 
[V:3] z8 | 
[V:4] F,4G,4 | 
[V:1] c6BA | 
[V:2] c4c3d | 
[V:3] G6A2 | 
[V:4] C,3D,E,2F,2 | 
[V:1] G2F2A4- | 
[V:2] _e2d2c4 | 
[V:3] B4c4 | 
[V:4] G,2B,2A,2F,2- | 
[V:1] A2GFG2FE | 
[V:2] A4c4 | 
[V:3] d4_e4 | 
[V:4] F,2E,D,C,4 | 
[V:1] D3EFGA2- | 
[V:2] F3GABc2 | 
[V:3] f6_ed | 
[V:4] B,,4z2F,2- | 
[V:1] A2G4^F2 | 
[V:2] A2B2A4 | 
[V:3] c2B2d4- | 
[V:4] F,2G,2D,4 | 
[V:1] G8 | 
[V:2] G4z4 | 
[V:3] d2cBc2BA | 
[V:4] G,,4z2C,2- | 
[V:1] z8 | 
[V:2] c3defg2- | 
[V:3] G3ABcd2- | 
[V:4] C,D,E,F,G,A,B,2- | 
[V:1] z8 | 
[V:2] g2f4e2 | 
[V:3] d2c4B2 | 
[V:4] B,2A,2G,4 | 
[V:1] A4A2A2 | 
[V:2] f4z2c2- | 
[V:3] c8 | 
[V:4] F,8 | 
[V:1] A4c4 | 
[V:2] c2e4f2- | 
[V:3] z8 | 
[V:4] A,6G,F, | 
[V:1] B6AG | 
[V:2] f2d4c2 | 
[V:3] z8 | 
[V:4] G,4E,4 | 
[V:1] F4z4 | 
[V:2] d2A2B4 | 
[V:3] d4d2d2 | 
[V:4] D,4z2B,,2- | 
[V:1] B4A2A2 | 
[V:2] z2F2c4 | 
[V:3] d4f4 | 
[V:4] B,,2A,,G,,F,,4 | 
[V:1] G6FE | 
[V:2] c6de | 
[V:3] _e6dc | 
[V:4] C,8 | 
[V:1] D2F4ED | 
[V:2] f2d4B2- | 
[V:3] B4z4 | 
[V:4] z8 | 
[V:1] C4B,4 | 
[V:2] B2A2B4 | 
[V:3] _e4d2d2 | 
[V:4] z4B,,4 | 
[V:1] z8 | 
[V:2] z2c2g4- | 
[V:3] c6BA | 
[V:4] F,2_E,D,C,3D, | 
[V:1] z4D4 | 
[V:2] g2fef4- | 
[V:3] G2B4AG | 
[V:4] _E,2D,C,B,,4 | 
[V:1] F4G4 | 
[V:2] f2d4c2 | 
[V:3] F4_E4 | 
[V:4] z8 | 
[V:1] A6A2 | 
[V:2] f2edc2d2- | 
[V:3] z8 | 
[V:4] D,4F,4 | 
[V:1] D4E2G2- | 
[V:2] dcB2c2BA | 
[V:3] z4G4 | 
[V:4] G,4C,4 | 
[V:1] GFD2E4 | 
[V:2] G2B2A4 | 
[V:3] B4c4 | 
[V:4] z8 | 
[V:1] D8 | 
[V:2] B2AGF2G2- | 
[V:3] d6d2 | 
[V:4] B,,3C,D,2B,,2 | 
[V:1] z8 | 
[V:2] G2c2d2e2 | 
[V:3] G4A2c2- | 
[V:4] C,2_E,2D,2C,2 | 
[V:1] z8 | 
[V:2] f2g4^f2 | 
[V:3] cBG2A4 | 
[V:4] F,2E,2D,4 | 
[V:1] D6D2 | 
[V:2] g8 | 
[V:3] G8 | 
[V:4] G,,4z2G,2- | 
[V:1] E4E4 | 
[V:2] z8 | 
[V:3] z8 | 
[V:4] G,2E,4C,2- | 
[V:1] D4G4 | 
[V:2] z2g4e2- | 
[V:3] z8 | 
[V:4] C,2B,,2C,4 | 
[V:1] G2FED4 | 
[V:2] e2c4=B2 | 
[V:3] G6G2 | 
[V:4] G,,8 | 
[V:1] C8 | 
[V:2] c4z4 | 
[V:3] A4A4 | 
[V:4] z8 | 
[V:1] z8 | 
[V:2] c6d2 | 
[V:3] G4c4 | 
[V:4] C,4C,4 | 
[V:1] G4G4 | 
[V:2] e4e4 | 
[V:3] c2BAG4 | 
[V:4] C,6C,2 | 
[V:1] A6A2 | 
[V:2] f4f4 | 
[V:3] F8 | 
[V:4] F,,4F,4 | 
[V:1] B4B4 | 
[V:2] d6e2 | 
[V:3] z8 | 
[V:4] G,4G,2G,2 | 
[V:1] A2G2c4- | 
[V:2] f2g2e4 | 
[V:3] c4c4 | 
[V:4] F,2E,2C,4 | 
[V:1] c2=BA=B2=B2 | 
[V:2] d4g4- | 
[V:3] d6d2 | 
[V:4] G,4G,2G,2 | 
[V:1] c4G4 | 
[V:2] g4z2c2 | 
[V:3] _e4_e4 | 
[V:4] C,4C,4 | 
[V:1] A4A4 | 
[V:2] A4c4 | 
[V:3] d2c2f4- | 
[V:4] F,8 | 
[V:1] B4B4 | 
[V:2] B4G4 | 
[V:3] f2=ed=e2=e2 | 
[V:4] G,8 | 
[V:1] A4z2A2 | 
[V:2] c4f4 | 
[V:3] f4c4 | 
[V:4] F,4F,4 | 
[V:1] B2B2A2A2 | 
[V:2] f4FGAB | 
[V:3] d4d4 | 
[V:4] B,,3C,D,E,F,2 | 
[V:1] G2G2G4 | 
[V:2] c6G2- | 
[V:3] _e4_e4 | 
[V:4] C,4C,4 | 
[V:1] B4A4 | 
[V:2] G2g4^f2 | 
[V:3] d4z2d2 | 
[V:4] G,,4D,4 | 
[V:1] G4z2D2 | 
[V:2] g4G4- | 
[V:3] _e2_e2d2d2 | 
[V:4] z2C,2C,2B,,2 | 
[V:1] E3FG4 | 
[V:2] G2A2G2c2- | 
[V:3] c2c2c4 | 
[V:4] C,2C,2C,2C,2 | 
[V:1] z2G2A2B2 | 
[V:2] c2c2F2G2 | 
[V:3] _e4d4 | 
[V:4] C,4z4 | 
[V:1] c3B/A/G4 | 
[V:2] A2c4d2 | 
[V:3] c4z2G2 | 
[V:4] z8 | 
[V:1] F4z2G2 | 
[V:2] c2f4e2 | 
[V:3] A3Bc4 | 
[V:4] z4C,4 | 
[V:1] A2A2A2G2 | 
[V:2] f4z2c2 | 
[V:3] z2c2d2_e2 | 
[V:4] F,3E,F,2E,2 | 
[V:1] A2GFE4 | 
[V:2] d2A4A2 | 
[V:3] f3_e/d/c4 | 
[V:4] D,4z2A,,2 | 
[V:1] D3EFGA2- | 
[V:2] F2G2A2F2- | 
[V:3] B4z2c2 | 
[V:4] B,,4A,,4 | 
[V:1] A2B3Ac2 | 
[V:2] F2G4F2 | 
[V:3] d2d2d2c2 | 
[V:4] z2G,,2G,,2A,,2 | 
[V:1] B2AG^F3E | 
[V:2] G2d4d2 | 
[V:3] d2cBA4 | 
[V:4] G,,2G,,2D,4 | 
[V:1] G8 | 
[V:2] B3cd2G2 | 
[V:3] G3ABcd2- | 
[V:4] G,,4G,4 | 
[V:1] z4z2A2 | 
[V:2] A2B4c2 | 
[V:3] d2_e3df2 | 
[V:4] F,2G,4F,2 | 
[V:1] G2B3AGF | 
[V:2] B2AGF4 | 
[V:3] _e2dc=B3A | 
[V:4] G,2F,E,D,4 | 
[V:1] E2G3FED | 
[V:2] G4G4 | 
[V:3] c8 | 
[V:4] C,4C,2C,2 | 
[V:1] C4F4 | 
[V:2] G4A4- | 
[V:3] z4z2d2 | 
[V:4] E,4D,4 | 
[V:1] E2G4E2 | 
[V:2] A2G2c4 | 
[V:3] c2_e3dcB | 
[V:4] z2C,4C,2 | 
[V:1] A4G2c2- | 
[V:2] F2A2E4 | 
[V:3] A2c3BAG | 
[V:4] D,2A,,2C,3B,, | 
[V:1] c2BAG4 | 
[V:2] A4d4 | 
[V:3] F4B4 | 
[V:4] A,,4z2B,,2 | 
[V:1] z4E4 | 
[V:2] c4z4 | 
[V:3] A2c4A2 | 
[V:4] C,2A,,2C,4 | 
[V:1] F3GA2A2 | 
[V:2] z8 | 
[V:3] d4c2f2- | 
[V:4] D,3E,F,2D,2 | 
[V:1] A2A2A2A2 | 
[V:2] z4f4 | 
[V:3] f2_edc4 | 
[V:4] F,4F,2F,2 | 
[V:1] B2A3GFE | 
[V:2] d4c2d2- | 
[V:3] z4A4 | 
[V:4] G,2F,3E,D,C, | 
[V:1] D2B2B2B2 | 
[V:2] d2B4G2 | 
[V:3] B3cd2d2 | 
[V:4] B,,3A,,G,,4 | 
[V:1] A2G4^F2 | 
[V:2] F2G2A3B | 
[V:3] d2d2d2d2 | 
[V:4] z4D,4 | 
[V:1] G8- | 
[V:2] c2dcBAG2- | 
[V:3] _e2d3cBA | 
[V:4] C,2B,,2G,,4 | 
[V:1] G8 | 
[V:2] G2G2c4 | 
[V:3] G2_e2_e2_e2 | 
[V:4] C,4C,4 | 
[V:1] F8 ||  
[V:2] A8 ||  
[V:3] d8 ||  
[V:4] D,8 ||  
[V:1]  [K:F] [K:clef=treble][M:3/1]z12 | 
[V:2]  [K:F] [K:clef=treble-8][M:3/1]G8G4 | 
[V:3]  [K:F] [K:clef=treble-8][M:3/1]z12 | 
[V:4]  [K:F] [K:clef=bass][M:3/1]G,,8B,,4 | 
[V:1] z12 | 
[V:2] G4F8 | 
[V:3] z12 | 
[V:4] C,4A,,8 | 
[V:1] D8F4 | 
[V:2] G2A2B2c2d4 | 
[V:3] z12 | 
[V:4] G,,4z4z4 | 
[V:1] G4E8 | 
[V:2] e4c6d2 | 
[V:3] z12 | 
[V:4] z12 | 
[V:1] z12 | 
[V:2] e4d8 | 
[V:3] G8B4 | 
[V:4] C,4G,8 | 
[V:1] z12 | 
[V:2] c4f2e2d2c2 | 
[V:3] c4A8 | 
[V:4] A,4F,6E,2 | 
[V:1] G8B4 | 
[V:2] B2A2G4g4 | 
[V:3] z12 | 
[V:4] G,12 | 
[V:1] c4A8 | 
[V:2] e4^f8 | 
[V:3] z12 | 
[V:4] C,4D,8 | 
[V:1] G4z4G4 | 
[V:2] g4z4z4 | 
[V:3] c8_e4 | 
[V:4] E,4C,4G,4 | 
[V:1] A4A4B4 | 
[V:2] z12 | 
[V:3] f4d8 | 
[V:4] F,8G,4 | 
[V:1] c6B2A2G2 | 
[V:2] e4c2d4e2 | 
[V:3] c4z4c4 | 
[V:4] A,6G,2F,2E,2 | 
[V:1] F4z4z4 | 
[V:2] f4d4c3B | 
[V:3] d4d4_e4 | 
[V:4] D,4B,,4C,4 | 
[V:1] z12 | 
[V:2] B4A8 | 
[V:3] f6_e2d2c2 | 
[V:4] D,4F,6E,2 | 
[V:1] D4F6E2 | 
[V:2] G4d6c2 | 
[V:3] B4z4z4 | 
[V:4] G,4D,8 | 
[V:1] D8C4 | 
[V:2] A8G4 | 
[V:3] z12 | 
[V:4] F,4_E,8 | 
[V:1] D8F4 | 
[V:2] B8d4 | 
[V:3] G4B6A2 | 
[V:4] B,,8B,,4 | 
[V:1] G4A8 | 
[V:2] c4d8 | 
[V:3] G8^F4 | 
[V:4] _E,4D,4z4 | 
[V:1] D4z4z4 | 
[V:2] B2c2d2_e2d4 | 
[V:3] G8B4 | 
[V:4] G,,2A,,2B,,2C,2D,4 | 
[V:1] G4G4F4 | 
[V:2] G4A8 | 
[V:3] c4d8 | 
[V:4] _E,4D,8 | 
[V:1] G4B8 | 
[V:2] G8d4 | 
[V:3] G4z4z4 | 
[V:4] G,,4G,8 | 
[V:1] A8B4 | 
[V:2] f8d4 | 
[V:3] c4c4B4 | 
[V:4] F,4F,4G,4 | 
[V:1] A4G8 | 
[V:2] A4c8 | 
[V:3] c4_e8 | 
[V:4] F,4C,8 | 
[V:1] F2G2A2B2c4 | 
[V:2] f8g4 | 
[V:3] d8_e4 | 
[V:4] D,8C,4 | 
[V:1] B8A4 | 
[V:2] f8f4 | 
[V:3] d4c8 | 
[V:4] D,4F,8 | 
[V:1] B8z4 | 
[V:2] d6c2A2B2 | 
[V:3] B2c2d2_e2f4 | 
[V:4] B,,6C,2D,4 | 
[V:1] z12 | 
[V:2] c4A6B2 | 
[V:3] _e8d4 | 
[V:4] C,4F,8 | 
[V:1] [M:2/1]G8 | 
[V:2] [M:2/1]c2d2_e4- | 
[V:3] (3:2:2_e8z4 | 
[V:4] [M:2/1]C,6B,,A,, | 
[V:1] G8 | 
[V:2] e2dcd2e2 | 
[V:3] (3:2:1z12 | 
[V:4] G,,4G,4 | 
[V:1] A4A2G2- | 
[V:2] f4z4 | 
[V:3] [M:2/1]c8 | 
[V:4] F,6E,2 | 
[V:1] GFEDE4 | 
[V:2] z8 | 
[V:3] c8 | 
[V:4] C,3B,,A,,4 | 
[V:1] D4z4 | 
[V:2] Bcdefga2- | 
[V:3] d4d2c2- | 
[V:4] B,,4z4 | 
[V:1] A8 | 
[V:2] a2g4^f2 | 
[V:3] cBAGA4 | 
[V:4] z4D,4 | 
[V:1] B8 | 
[V:2] g4d3e | 
[V:3] G4z4 | 
[V:4] G,,4G,4 | 
[V:1] A4A4 | 
[V:2] f2F2A3B | 
[V:3] d8 | 
[V:4] F,3E,D,4 | 
[V:1] z2G4c2- | 
[V:2] c4c4 | 
[V:3] _e8 | 
[V:4] C,8 | 
[V:1] cBAGF4 | 
[V:2] A8 | 
[V:3] d4d4 | 
[V:4] D,8 | 
[V:1] G4A4 | 
[V:2] G4F4 | 
[V:3] z2c4f2- | 
[V:4] E,2C,2F,4- | 
[V:1] z4D4 | 
[V:2] A4z2G2- | 
[V:3] f_edcB4 | 
[V:4] F,2E,F,G,4 | 
[V:1] E4F4 | 
[V:2] G2G2A3B | 
[V:3] c4d4 | 
[V:4] E,4D,4 | 
[V:1] G4E4 | 
[V:2] c8 | 
[V:3] z4G4 | 
[V:4] C,4C,4 | 
[V:1] z2F4G2- | 
[V:2] F4BAGF | 
[V:3] A4B4 | 
[V:4] z8 | 
[V:1] GFEDC4 | 
[V:2] E4e4 | 
[V:3] c4A4 | 
[V:4] z4A,,4 | 
[V:1] F4G4 | 
[V:2] d4z4 | 
[V:3] z2B4c2- | 
[V:4] D,4_E,D,C,B,, | 
[V:1] A2c3BA2 | 
[V:2] e4A2c2 | 
[V:3] cBAGF4 | 
[V:4] A,,4z4 | 
[V:1] G2F2E4 | 
[V:2] d4A4 | 
[V:3] B4c4 | 
[V:4] z4A,,4 | 
[V:1] D2A3GB2 | 
[V:2] F3GAFf2- | 
[V:3] d2f3_ed2 | 
[V:4] B,,C,D,E,F,2B,,2 | 
[V:1] A2G4^F2 | 
[V:2] f2d6- | 
[V:3] c2B2A4 | 
[V:4] F,2G,2D,4 | 
[V:1] G8 |]  
[V:2] d8 |]  
[V:3] G8 |]  
[V:4] G,,8 |]  



